X:1
T:Ah, son tradito
T:Ah, son tradito
T:Domenico Obizzi
T:Arietta
T:Source : Madrigali et arie a voce sola---Libro I ---Venetia---A.Vincenti---1627. Editor : André Vierendeels (25/02/16). 
T:Notes : Original clefs : C1, F4 Notation in original print : "Alfabeto d'ariette per la Chitarra alla Spagnola", realised by the editor Original note values have been halved Dotted brackets indicate black notes 
T:©
T:©
C:Domenico Obizzi
Z:©
%%score 1 { ( 2 3 ) | 4 }
L:1/8
Q:1/4=145
M:3/4
K:C
V:1 treble nm="Soprano" snm="S"
V:2 treble nm="BC" snm="BC"
V:3 treble 
V:4 bass 
V:1
 z2 B2 c2 | d2 e4 | z2 c2 B2 | A2 d2 c2 | B2 A2 G2 | ^F2 E2 D2 | E4 ^F2 | G4 A2 | B3 A c2 | B2 A4 | %10
w: Ah, _|_ _|son tra-|di- to, fe-|ri- to'il mio|co- re, dal|cie- co|par- go|let- to'in- in-|quo'A- mo-|
w: Ah, _|_ _|che non|tro- vo se|pro- vo'il mar-|ti- re, pie-|ta, mer-|ce, soc-|cor- ro'al mio|lan- gui-|
w: Ah, _|_ _|per- che|cru- da'i- gnu-|da, e d'A-|mo- re, non|m'o- di|mi strug-|gi'O vi- ta,|O co-|
 G6 :: z4 G2 | A2 A2 A2 | B2 B2 B2 | ^c2 c2 c2 | d2 d2 A2 | AG AB c2 | dc B4 | A2 c4- | c2 _B4 | %20
w: re,|Lan-|guen- do mi|strug- go, strug-|gen- do mi|mo- ro, e|pur _ _ _ _|ri _ fug-|go, O|_ mio|
w: re.|Mi|sprez- zi ri-|den- do, m'uc-|ci- di mi-|ran- do, e|pur _ _ _ _|pian- * gen-|do, qual|_ cig-|
w: re.|Do-|len- te ti|chie- do, ti|pre- go che|m'a- mi, e|non te _ _ _|_ _ vi-|do, pie-|* to-|
 A2 G2 F2 | E4 ^F2 | G4 AB | cB A4 | G6 :| %25
w: ben, O mia|vi- ta,|O mio _|te- * so-|ro.|
w: no vi- vo'hi|me mo-|ro can- *|* * tan-|do.|
w: sa ma cru-|del mia|mor- te _|_ _ bra-|mi.|
V:2
 d4 c2 | d2 e4 | c6 | A6 | d4 c2 | A2 c2 B2 | G6 | B2 c4 | d4 e2 | B2 A2 Bc | d6 :: B6 | A6 | d6 | %14
 ^c6 | A6- | A2 A2 c2 | A2 ^G4 | A2 A4 | G4 _B2 | c2 d4 | c4 d2 | d4 c2- | c2 d4 | B6 :| %25
V:3
 G2 D4 | G4 A2 | E6 | D6 | G2 A2 G2 | ^F2 G2 D2 | E6 | D4 E^F | G4 G2- | G2 ^F4 | G6 :: D6 | D6 | %13
 B4 G2 | A6 | ^F6- | F2 E4 | F2 E4 | C2 F4 | D6 | E2 G4 | G4 A2 | G4 E2 | E2 ^F G2 F | G6 :| %25
V:4
 G,6 | G,6 | A,6 | ^F,6 | G,2 ^F,2 E,2 | D,2 C,2 B,,2 | C,6 | B,,2 A,,4 | G,,4 C,2- | C,2 D,4 | %10
 G,,6 :: G,6 | ^F,6 | G,6 | E,6 | D,4 D,2 | D,2 C,B,, A,,2 | D,2 E,4 | A,,2 F,,4 | G,,6 | %20
 A,,2 B,,4 | C,6 | B,,4 C,2- | C,2 D,4 | G,,6 :| %25

